X:0106
T:La Damoselle.
M:6/8
L:1/8
Q:3/8=120
I: :: ::
Z:Jack Campin * www.campin.me.uk * 2009
K:G
B/c/|d2d dBd|e2c c2e|dec BcA|G2G GAB|
     d2d dBd|e2c c2e|dec BcA|G3  G2:|
d   |G2g gfg|a2d d2
f/g/|g2g aga|b2g g2
b   |abg fge|d2d dBc|
     d2d dBd|e2c c2e|dec BcA|G2G G2
B/c/|d2d dBd|e2c c2e|dec BcA|G3  G2:|

